humanity-icon-theme/Humanity/actions/24/edit-find.svg

<?xml version="1.0" encoding="UTF-8" standalone="no"?>
<!-- Created with Inkscape (http://www.inkscape.org/) -->

<svg
   xmlns:svg="http://www.w3.org/2000/svg"
   xmlns="http://www.w3.org/2000/svg"
   xmlns:xlink="http://www.w3.org/1999/xlink"
   version="1.0"
   width="24"
   height="24"
   id="svg2">
  <defs
     id="defs4">
    <linearGradient
       id="linearGradient3277-442">
      <stop
         id="stop3378"
         style="stop-color:#575757;stop-opacity:1"
         offset="0" />
      <stop
         id="stop3380"
         style="stop-color:#333;stop-opacity:1"
         offset="1" />
    </linearGradient>
    <linearGradient
       x1="32.892574"
       y1="27.988184"
       x2="31.364458"
       y2="29.484051"
       id="linearGradient2543"
       xlink:href="#linearGradient3277-442"
       gradientUnits="userSpaceOnUse"
       gradientTransform="matrix(0.5018785,0,0,0.462207,-0.3803386,1.9030377)" />
    <linearGradient
       id="linearGradient11114-516">
      <stop
         id="stop3372"
         style="stop-color:#242424;stop-opacity:0.99215686"
         offset="0" />
      <stop
         id="stop3374"
         style="stop-color:#656565;stop-opacity:1"
         offset="1" />
    </linearGradient>
    <linearGradient
       x1="-172.65306"
       y1="99.667191"
       x2="-164.71831"
       y2="91.972626"
       id="linearGradient2541"
       xlink:href="#linearGradient11114-516"
       gradientUnits="userSpaceOnUse"
       gradientTransform="matrix(0.1953514,0,0,0.1799097,50.0016,-0.8912687)" />
    <linearGradient
       id="linearGradient3294">
      <stop
         id="stop3296"
         style="stop-color:white;stop-opacity:0.19520548"
         offset="0" />
      <stop
         id="stop3298"
         style="stop-color:white;stop-opacity:0"
         offset="1" />
    </linearGradient>
    <linearGradient
       x1="212.04402"
       y1="123.74026"
       x2="210.58083"
       y2="74.261711"
       id="linearGradient2538"
       xlink:href="#linearGradient3294"
       gradientUnits="userSpaceOnUse"
       gradientTransform="matrix(0.1953514,0,0,0.1799097,-25.223109,0.847388)" />
    <linearGradient
       id="linearGradient4454-600">
      <stop
         id="stop3408"
         style="stop-color:white;stop-opacity:0.64726025"
         offset="0" />
      <stop
         id="stop3410"
         style="stop-color:white;stop-opacity:0.19520548"
         offset="1" />
    </linearGradient>
    <radialGradient
       cx="18.240929"
       cy="21.817987"
       r="8.3085051"
       fx="18.240929"
       fy="21.817987"
       id="radialGradient2514"
       xlink:href="#linearGradient4454-600"
       gradientUnits="userSpaceOnUse" />
    <linearGradient
       id="linearGradient4467-402">
      <stop
         id="stop3390"
         style="stop-color:white;stop-opacity:1"
         offset="0" />
      <stop
         id="stop3392"
         style="stop-color:white;stop-opacity:0.24761905"
         offset="1" />
    </linearGradient>
    <radialGradient
       cx="15.414371"
       cy="13.078408"
       r="6.65625"
       fx="15.414371"
       fy="13.078408"
       id="radialGradient2533"
       xlink:href="#linearGradient4467-402"
       gradientUnits="userSpaceOnUse"
       gradientTransform="matrix(1.4500546,0,0,1.1280465,-15.280129,-9.906347)" />
    <linearGradient
       id="linearGradient11104-770">
      <stop
         id="stop3402"
         style="stop-color:#333;stop-opacity:1"
         offset="0" />
      <stop
         id="stop3404"
         style="stop-color:#333;stop-opacity:0.6122449"
         offset="1" />
    </linearGradient>
    <linearGradient
       x1="41.541653"
       y1="68.291702"
       x2="41.485142"
       y2="4.5362983"
       id="linearGradient2530"
       xlink:href="#linearGradient11104-770"
       gradientUnits="userSpaceOnUse"
       gradientTransform="matrix(0.1906508,0,0,0.1908549,0.5616077,1.5616236)" />
    <linearGradient
       id="linearGradient2300-465">
      <stop
         id="stop3396"
         style="stop-color:#343434;stop-opacity:0.97647059"
         offset="0" />
      <stop
         id="stop3398"
         style="stop-color:#929292;stop-opacity:1"
         offset="1" />
    </linearGradient>
    <linearGradient
       x1="173.09576"
       y1="75.31868"
       x2="173.09576"
       y2="11.949074"
       id="linearGradient2528"
       xlink:href="#linearGradient2300-465"
       gradientUnits="userSpaceOnUse"
       gradientTransform="matrix(0.1906508,0,0,0.1908549,-24.167929,0.1252679)" />
    <linearGradient
       id="linearGradient6209-717">
      <stop
         id="stop3366"
         style="stop-color:#979797;stop-opacity:1"
         offset="0" />
      <stop
         id="stop3368"
         style="stop-color:black;stop-opacity:0.34117648"
         offset="1" />
    </linearGradient>
    <linearGradient
       x1="173.09576"
       y1="75.31868"
       x2="173.09576"
       y2="11.949074"
       id="linearGradient2525"
       xlink:href="#linearGradient6209-717"
       gradientUnits="userSpaceOnUse"
       gradientTransform="matrix(0.1815664,0,0,0.1817607,-22.545212,0.4075216)" />
  </defs>
  <g
     id="layer1">
    <path
       d="M 13.679117,12.5 22.413809,19.986728 21.203058,21.5 12.5,13.401362 13.679117,12.5 z"
       id="path11112"
       style="fill:url(#linearGradient2541);fill-opacity:1;fill-rule:evenodd;stroke:url(#linearGradient2543);stroke-width:1;stroke-linecap:round;stroke-linejoin:round;stroke-miterlimit:4;stroke-opacity:1;stroke-dasharray:none;display:inline" />
    <path
       d="m 21.217785,21.008568 -7.005051,-8.044248 8.475248,6.849559 -1.470197,1.194689 z"
       id="path11122"
       style="fill:url(#linearGradient2538);fill-opacity:1;fill-rule:evenodd;stroke:none;display:inline" />
    <path
       d="m 247.90924,110.29199 a 4.86685,2.6562012 0 1 1 -9.7337,0 4.86685,2.6562012 0 1 1 9.7337,0 z"
       transform="matrix(0.1837074,-0.1915779,0.2354746,0.1427652,-48.692604,51.644667)"
       id="path13082"
       style="fill:#3e3e3e;fill-opacity:1;stroke:none;display:inline" />
    <path
       d="m 25.897786,18.478292 a 8.3085051,8.3085051 0 1 1 -16.61701,0 8.3085051,8.3085051 0 1 1 16.61701,0 z"
       transform="matrix(0.7030485,0,0,0.6866873,-3.2377028,-4.4914744)"
       id="path4452"
       style="opacity:0.4;fill:url(#radialGradient2514);fill-opacity:1;fill-rule:evenodd;stroke:none;stroke-width:0.88163906;marker:none;visibility:visible;display:inline" />
    <path
       d="m 8.8877932,3.285826 c -2.9122238,0 -5.2704608,2.112213 -5.2704608,4.7206197 0,0.7533185 0.065298,1.5314093 0.4158554,2.1635933 0.7003648,0.231216 1.6140995,0.303562 2.4037328,0.303562 3.4509655,0 6.4192074,-2.5625743 6.6321734,-5.6057008 C 12.101092,3.8433232 10.502538,3.285826 8.8877932,3.285826 z"
       id="path4462"
       style="opacity:0.6;fill:url(#radialGradient2533);fill-opacity:1;fill-rule:evenodd;stroke:none;stroke-width:1;marker:none;visibility:visible;display:inline;overflow:visible" />
    <path
       d="M 9.0000005,2.5 C 5.4126135,2.5 2.499998,5.1886101 2.5,8.4999999 2.5,11.811391 5.4126135,14.5 9.0000005,14.5 12.587385,14.5 15.5,11.811391 15.5,8.4999999 15.5,5.1886101 12.587386,2.5 9.0000005,2.5 z m 0.077451,0.3936385 c 3.2107345,0 5.8208075,2.4040776 5.8208075,5.3677935 0,2.963715 -2.610073,5.367794 -5.8208075,5.367794 -3.2107343,0 -5.8148483,-2.404078 -5.8148483,-5.367794 0,-2.9637159 2.604114,-5.3677935 5.8148483,-5.3677935 z"
       id="path2298"
       style="fill:url(#linearGradient2528);fill-opacity:1;stroke:url(#linearGradient2530);stroke-width:1;stroke-linecap:round;stroke-linejoin:round;stroke-miterlimit:4;stroke-opacity:1;stroke-dasharray:none;display:inline" />
    <path
       d="m 9.0417066,2.6729635 c -3.4164491,0 -6.1842359,2.5601138 -6.1842359,5.7137188 0,3.1536037 2.7677849,5.7137167 6.1842359,5.7137167 3.4164494,0 6.1901934,-2.560114 6.1901934,-5.7137167 0,-3.153605 -2.773746,-5.7137188 -6.1901934,-5.7137188 z m 0.035747,0.220676 c 3.2107324,0 5.5661824,2.4040786 5.5661824,5.3677936 0,2.9637149 -2.35545,5.1128949 -5.5661824,5.1128949 -3.2107351,0 -5.6026612,-2.149179 -5.6026612,-5.1128949 0,-2.963715 2.3919261,-5.3677936 5.6026612,-5.3677936 z"
       id="path4267"
       style="fill:url(#linearGradient2525);fill-opacity:1;stroke:none;display:inline" />
  </g>
</svg>

<?xml version="1.0" encoding="UTF-8" standalone="no"?>
<!-- Created with Inkscape (http://www.inkscape.org/) -->
<svg id="svg2" xmlns="http://www.w3.org/2000/svg" height="24" width="24" version="1.0" xmlns:xlink="http://www.w3.org/1999/xlink">
 <defs id="defs4">
  <linearGradient id="linearGradient2543" y2="29.484" gradientUnits="userSpaceOnUse" x2="31.364" gradientTransform="matrix(.50188 0 0 .46221 -.38034 1.903)" y1="27.988" x1="32.893">
   <stop id="stop3378" style="stop-color:#575757" offset="0"/>
   <stop id="stop3380" style="stop-color:#333" offset="1"/>
  </linearGradient>
  <linearGradient id="linearGradient2541" y2="91.973" gradientUnits="userSpaceOnUse" x2="-164.72" gradientTransform="matrix(.19535 0 0 .17991 50.002 -.89127)" y1="99.667" x1="-172.65">
   <stop id="stop3372" style="stop-color:#242424;stop-opacity:.99216" offset="0"/>
   <stop id="stop3374" style="stop-color:#656565" offset="1"/>
  </linearGradient>
  <linearGradient id="linearGradient2538" y2="74.262" gradientUnits="userSpaceOnUse" x2="210.58" gradientTransform="matrix(.19535 0 0 .17991 -25.223 .84739)" y1="123.74" x1="212.04">
   <stop id="stop3296" style="stop-color:#fff;stop-opacity:.19521" offset="0"/>
   <stop id="stop3298" style="stop-color:#fff;stop-opacity:0" offset="1"/>
  </linearGradient>
  <radialGradient id="radialGradient2514" gradientUnits="userSpaceOnUse" cy="21.818" cx="18.241" r="8.3085">
   <stop id="stop3408" style="stop-color:#fff;stop-opacity:.64726" offset="0"/>
   <stop id="stop3410" style="stop-color:#fff;stop-opacity:.19521" offset="1"/>
  </radialGradient>
  <radialGradient id="radialGradient2533" gradientUnits="userSpaceOnUse" cy="13.078" cx="15.414" gradientTransform="matrix(1.4501 0 0 1.128 -15.28 -9.9063)" r="6.6562">
   <stop id="stop3390" style="stop-color:#fff" offset="0"/>
   <stop id="stop3392" style="stop-color:#fff;stop-opacity:.24762" offset="1"/>
  </radialGradient>
  <linearGradient id="linearGradient2530" y2="4.5363" gradientUnits="userSpaceOnUse" x2="41.485" gradientTransform="matrix(.19065 0 0 .19085 .56161 1.5616)" y1="68.292" x1="41.542">
   <stop id="stop3402" style="stop-color:#333" offset="0"/>
   <stop id="stop3404" style="stop-color:#333;stop-opacity:.61224" offset="1"/>
  </linearGradient>
  <linearGradient id="linearGradient2528" y2="11.949" gradientUnits="userSpaceOnUse" x2="173.1" gradientTransform="matrix(.19065 0 0 .19085 -24.168 .12527)" y1="75.319" x1="173.1">
   <stop id="stop3396" style="stop-color:#343434;stop-opacity:.97647" offset="0"/>
   <stop id="stop3398" style="stop-color:#929292" offset="1"/>
  </linearGradient>
  <linearGradient id="linearGradient2525" y2="11.949" gradientUnits="userSpaceOnUse" x2="173.1" gradientTransform="matrix(.18157 0 0 .18176 -22.545 .40752)" y1="75.319" x1="173.1">
   <stop id="stop3366" style="stop-color:#979797" offset="0"/>
   <stop id="stop3368" style="stop-opacity:.34118" offset="1"/>
  </linearGradient>
 </defs>
 <g id="layer1">
  <path id="path11112" style="stroke-linejoin:round;fill-rule:evenodd;stroke:url(#linearGradient2543);stroke-linecap:round;fill:url(#linearGradient2541)" d="m13.679 12.5 8.735 7.487-1.211 1.513-8.703-8.099 1.179-0.901z"/>
  <path id="path11122" style="fill:url(#linearGradient2538);fill-rule:evenodd" d="m21.218 21.009-7.0051-8.0442 8.4752 6.8496-1.4702 1.1947z"/>
  <path id="path13082" style="fill:#3e3e3e" d="m247.91 110.29a4.8668 2.6562 0 1 1 -9.7337 0 4.8668 2.6562 0 1 1 9.7337 0z" transform="matrix(.18371 -.19158 .23547 .14277 -48.693 51.645)"/>
  <path id="path4452" style="opacity:.4;fill-rule:evenodd;fill:url(#radialGradient2514)" d="m25.898 18.478a8.3085 8.3085 0 1 1 -16.617 0 8.3085 8.3085 0 1 1 16.617 0z" transform="matrix(.70305 0 0 .68669 -3.2377 -4.4915)"/>
  <path id="path4462" style="opacity:.6;fill-rule:evenodd;fill:url(#radialGradient2533)" d="m8.8878 3.2858c-2.9122 0-5.2705 2.1122-5.2705 4.7206 0 0.75332 0.065298 1.5314 0.41586 2.1636 0.70036 0.23122 1.6141 0.30356 2.4037 0.30356 3.451 0 6.4192-2.5626 6.6322-5.6057-0.968-1.0246-2.566-1.5821-4.1812-1.5821z"/>
  <path id="path2298" style="stroke-linejoin:round;stroke:url(#linearGradient2530);stroke-linecap:round;fill:url(#linearGradient2528)" d="m9 2.5c-3.5874 0-6.5 2.6886-6.5 6 0 3.311 2.9126 6 6.5 6 3.587 0 6.5-2.689 6.5-6 0-3.3114-2.913-6-6.5-6zm0.077451 0.39364c3.2107 0 5.8208 2.4041 5.8208 5.3678s-2.6101 5.3678-5.8208 5.3678-5.8148-2.4041-5.8148-5.3678 2.6041-5.3678 5.8148-5.3678z"/>
  <path id="path4267" style="fill:url(#linearGradient2525)" d="m9.0417 2.673c-3.4164 0-6.1842 2.5601-6.1842 5.7137s2.7678 5.7137 6.1842 5.7137 6.1902-2.5601 6.1902-5.7137-2.7737-5.7137-6.1902-5.7137zm0.035747 0.22068c3.2107 0 5.5662 2.4041 5.5662 5.3678s-2.3554 5.1129-5.5662 5.1129c-3.2107 0-5.6027-2.1492-5.6027-5.1129s2.3919-5.3678 5.6027-5.3678z"/>
 </g>
</svg>
